svgs/reev_chroma.svg

<svg width="192" height="192" viewBox="0 0 192 192" fill="none" xmlns="http://www.w3.org/2000/svg">
<path d="M35 142.313V164C35 167.314 37.6863 170 41 170H157L111.124 96.5034H119.748C140.322 96.5034 157 79.8252 157 59.2517V59.2517C157 38.6782 140.322 22 119.748 22H41C37.6863 22 35 24.6863 35 28V44.1497" stroke="black" stroke-width="12" stroke-linecap="round" stroke-linejoin="round"/>
<path d="M35 73.3469H61.2149" stroke="black" stroke-width="12" stroke-linecap="round" stroke-linejoin="round"/>
<path d="M35 111.605H61.2149" stroke="black" stroke-width="12" stroke-linecap="round" stroke-linejoin="round"/>
<path d="M35 92.4762H79.3636" stroke="black" stroke-width="12" stroke-linecap="round" stroke-linejoin="round"/>
</svg>

<svg width="192" height="192" viewBox="0 0 192 192" fill="none" xmlns="http://www.w3.org/2000/svg"><path d="M35 142.313V164a6 6 0 0 0 6 6h116l-45.876-73.497h8.624c20.574 0 37.252-16.678 37.252-37.251v0C157 38.678 140.322 22 119.748 22H41a6 6 0 0 0-6 6v16.15M35 73.347h26.215M35 111.605h26.215M35 92.476h44.364" stroke="#000" stroke-width="12" stroke-linecap="round" stroke-linejoin="round"/></svg>
